view/frontend/web/svg/flags/mh.svg

<svg width="24" height="24" viewbox="0 0 20 15" viewBox="0 0 20 15" fill="none" xmlns="http://www.w3.org/2000/svg">
<g clip-path="url(#clip0_270_60855)">
<rect width="20" height="15" fill="white"/>
<path fill-rule="evenodd" clip-rule="evenodd" d="M0 0V15H20V0H0Z" fill="#3D58DB"/>
<mask id="mask0_270_60855" style="mask-type:luminance" maskUnits="userSpaceOnUse" x="0" y="0" width="20" height="15">
<path fill-rule="evenodd" clip-rule="evenodd" d="M0 0V15H20V0H0Z" fill="white"/>
</mask>
<g mask="url(#mask0_270_60855)">
<path fill-rule="evenodd" clip-rule="evenodd" d="M5 6.875L4.48938 8.71507L4.49413 6.80547L3.506 8.43954L4.02578 6.60204L2.63342 7.90892L3.62968 6.27979L1.93636 7.16255L3.33522 5.86262L1.46652 6.2558L3.16422 5.38148L1.25874 5.25591L3.12937 4.87205L1.32843 4.23704L3.23326 4.3721L1.67043 3.27476L3.46818 3.91872L2.25937 2.44043L3.81671 3.54554L3.05156 1.79593L4.253 3.28023L3.98826 1.38906L4.74469 3.14246L5 1.25L5.25531 3.14246L6.01174 1.38906L5.747 3.28023L6.94844 1.79593L6.18329 3.54554L7.74063 2.44043L6.53182 3.91872L8.32957 3.27476L6.76674 4.3721L8.67157 4.23704L6.87063 4.87205L8.74126 5.25591L6.83578 5.38148L8.53348 6.2558L6.66478 5.86262L8.06364 7.16255L6.37032 6.27979L7.36658 7.90892L5.97422 6.60204L6.494 8.43954L5.50587 6.80547L5.51062 8.71507L5 6.875Z" fill="#F7FCFF"/>
<path d="M-0.488739 15.4658L20.7864 0.759277V5.55351L-0.488739 15.4658Z" fill="white"/>
<path d="M-0.488739 15.4658L20.7864 -2.99072V1.80351L-0.488739 15.4658Z" fill="#E2AE57"/>
</g>
</g>
<defs>
<clipPath id="clip0_270_60855">
<rect width="20" height="15" fill="white"/>
</clipPath>
</defs>
</svg>

<svg width="24" height="24" viewbox="0 0 20 15" fill="none" xmlns="http://www.w3.org/2000/svg">
  <mask id="a" maskUnits="userSpaceOnUse" x="0" y="0" width="20" height="15">
    <path fill="#fff" d="M0 0h20v15H0z"/>
  </mask>
  <g mask="url(#a)">
    <path fill-rule="evenodd" clip-rule="evenodd" d="M0 0v15h20V0H0z" fill="#3D58DB"/>
    <mask id="b" maskUnits="userSpaceOnUse" x="0" y="0" width="20" height="15">
      <path fill-rule="evenodd" clip-rule="evenodd" d="M0 0v15h20V0H0z" fill="#fff"/>
    </mask>
    <g mask="url(#b)">
      <path fill-rule="evenodd" clip-rule="evenodd" d="M5 6.875l-.51 1.84.004-1.91-.988 1.635.52-1.838-1.393 1.307.997-1.63-1.694.884 1.4-1.3-1.87.393 1.698-.875-1.905-.125 1.87-.384-1.8-.635 1.904.135L1.67 3.275l1.798.644L2.26 2.44l1.558 1.106-.765-1.75 1.2 1.484-.265-1.89.757 1.752L5 1.25l.255 1.892.757-1.753-.265 1.891 1.201-1.484-.765 1.75L7.741 2.44 6.53 3.92l1.799-.644-1.563 1.097 1.905-.135-1.801.635 1.87.384-1.905.125 1.697.875-1.868-.393 1.399 1.3L6.37 6.28l.997 1.629-1.393-1.307.52 1.838-.988-1.635.005 1.91L5 6.875z" fill="#F7FCFF"/>
      <path d="M-.489 15.466L20.786.759v4.795L-.489 15.466z" fill="#fff"/>
      <path d="M-.489 15.466L20.786-2.991v4.795L-.489 15.466z" fill="#E2AE57"/>
    </g>
  </g>
</svg>
